build/images/icons/phone-icon.svg

<svg width="14" height="14" viewBox="0 0 14 14" fill="none" xmlns="http://www.w3.org/2000/svg">
<g id="Group 18">
<path id="Vector" d="M0.382872 5.92304C0.135027 5.25357 -0.0444466 4.56986 0.00968037 3.84342C0.0438658 3.39616 0.211944 3.01442 0.539555 2.70106C0.895654 2.3649 1.23181 2.01165 1.58221 1.66979C2.03802 1.21969 2.61062 1.22253 3.06643 1.66979C3.34846 1.94613 3.62764 2.22816 3.90682 2.51019C4.17746 2.78082 4.45094 3.05146 4.72158 3.32494C5.19733 3.80639 5.20017 4.3676 4.72443 4.84619C4.38257 5.18805 4.04357 5.53275 3.69601 5.86891C3.60485 5.95722 3.59631 6.03129 3.64473 6.14239C3.87264 6.68936 4.2031 7.1765 4.57344 7.63231C5.31982 8.54962 6.16306 9.36437 7.16869 9.99396C7.3852 10.1278 7.62165 10.2276 7.8467 10.3501C7.9635 10.4127 8.04042 10.3928 8.13443 10.2959C8.47343 9.94553 8.82099 9.60082 9.16854 9.25612C9.62434 8.80601 10.1941 8.80316 10.6499 9.25612C11.2083 9.80878 11.7638 10.3643 12.3164 10.9227C12.7808 11.3899 12.778 11.9625 12.3108 12.4325C11.9945 12.7516 11.6612 13.0536 11.365 13.3869C10.9319 13.8712 10.385 14.0307 9.76393 13.9965C8.85802 13.9481 8.02332 13.6461 7.21712 13.2558C5.42808 12.3869 3.90113 11.1819 2.62202 9.66065C1.67622 8.53253 0.895654 7.30755 0.382872 5.92304ZM13.3648 6.9429C13.7314 6.9429 14.0319 6.6448 13.9973 6.27984C13.6829 2.96477 11.0357 0.317624 7.72064 0.00320793C7.35569 -0.0314056 7.05758 0.269095 7.05758 0.635684C7.05758 1.00227 7.3561 1.29535 7.72018 1.33815C10.3028 1.64179 12.3587 3.69765 12.6623 6.28031C12.7051 6.64439 12.9982 6.9429 13.3648 6.9429ZM10.1428 6.28383C10.2185 6.64253 10.5084 6.9429 10.875 6.9429C11.2416 6.9429 11.5439 6.64398 11.49 6.28138C11.2011 4.33964 9.66084 2.79937 7.7191 2.51052C7.3565 2.45659 7.05758 2.75894 7.05758 3.12553C7.05758 3.49211 7.35796 3.78198 7.71665 3.85766C8.30811 3.98246 8.85111 4.27523 9.28819 4.7123C9.72526 5.14938 10.018 5.69238 10.1428 6.28383Z" fill="#BED8E8"/>
</g>
</svg>

<svg width="14" height="14" fill="none" xmlns="http://www.w3.org/2000/svg"><path d="M.383 5.923C.135 5.253-.044 4.57.01 3.843a1.7 1.7 0 0 1 .53-1.142c.356-.336.692-.69 1.042-1.031.456-.45 1.029-.447 1.484 0 .282.276.562.558.84.84.271.27.545.541.816.815.475.481.478 1.043.002 1.521-.341.342-.68.687-1.028 1.023-.091.088-.1.162-.051.273.228.547.558 1.034.928 1.49.747.918 1.59 1.732 2.596 2.362.216.134.453.234.678.356.116.063.193.043.287-.054.34-.35.687-.695 1.035-1.04.455-.45 1.025-.453 1.48 0a226.91 226.91 0 0 1 1.667 1.667c.465.467.462 1.04-.005 1.51-.316.319-.65.62-.946.954-.433.484-.98.644-1.601.61-.906-.049-1.74-.35-2.547-.741A13.859 13.859 0 0 1 2.622 9.66C1.676 8.533.896 7.308.382 5.923Zm12.982 1.02c.366 0 .667-.298.632-.663A6.985 6.985 0 0 0 7.721.003c-.365-.034-.663.266-.663.633 0 .366.298.66.662.702a5.656 5.656 0 0 1 4.942 4.942c.043.364.336.663.703.663Zm-3.222-.66c.075.36.365.66.732.66s.669-.299.615-.662a4.494 4.494 0 0 0-3.77-3.77c-.364-.054-.662.248-.662.615 0 .366.3.656.659.732a3.13 3.13 0 0 1 1.571.854c.437.437.73.98.855 1.572Z" fill="#BED8E8"/></svg>
